icons/svg/16x16/locked/outline.svg

<svg width="16" height="16" fill="none" xmlns="http://www.w3.org/2000/svg">
  <path fill-rule="evenodd" clip-rule="evenodd" d="M9 9v3H7V9a1 1 0 112 0zm-1 4c-1.871 0-3.225-.241-4-.437l.008-5.042C5.013 7.283 6.521 7 8 7s2.987.283 4 .523l.03 5.033C11.225 12.759 9.871 13 8 13zM6 4c0-1.103.897-2 2-2s2 .897 2 2v1.139A16.292 16.292 0 008 5c-.681 0-1.354.059-2 .139V4zm6.453 1.575c-.137-.032-.303-.064-.453-.097V4c0-2.206-1.794-4-4-4S4 1.794 4 4v1.478c-.15.033-.315.065-.453.097A2.004 2.004 0 002 7.523v5.04c0 .906.604 1.711 1.482 1.932 1 .252 2.506.505 4.518.505s3.518-.253 4.518-.505c.878-.221 1.482-1.026 1.482-1.932v-5.04c0-.93-.641-1.733-1.547-1.948z" fill="#000"/>
</svg>

<svg xmlns="http://www.w3.org/2000/svg" width="16" height="16" viewBox="0 0 16 16">
  <path fill-rule="evenodd" d="M9,9 L9,12 L7,12 L7,9 C7,8.447 7.447,8 8,8 C8.553,8 9,8.447 9,9 L9,9 Z M8,13 C6.129,13 4.775,12.759 4,12.563 L4.008,7.521 C5.013,7.283 6.521,7 8,7 C9.479,7 10.987,7.283 12,7.523 L12.03,12.556 C11.225,12.759 9.871,13 8,13 L8,13 Z M6,4 C6,2.897 6.897,2 8,2 C9.103,2 10,2.897 10,4 L10,5.139 C9.354,5.059 8.682,5 8,5 C7.319,5 6.646,5.059 6,5.139 L6,4 Z M12.453,5.575 C12.316,5.543 12.15,5.511 12,5.478 L12,4 C12,1.794 10.206,0 8,0 C5.794,0 4,1.794 4,4 L4,5.478 C3.85,5.511 3.685,5.543 3.547,5.575 C2.641,5.79 2,6.593 2,7.523 L2,12.563 C2,13.469 2.604,14.274 3.482,14.495 C4.482,14.747 5.988,15 8,15 C10.012,15 11.518,14.747 12.518,14.495 C13.396,14.274 14,13.469 14,12.563 L14,7.523 C14,6.593 13.359,5.79 12.453,5.575 L12.453,5.575 Z"/>
</svg>
